ashes/src/images/icons/promotions.svg

<?xml version="1.0" encoding="UTF-8" standalone="no"?>
<svg width="18px" height="14px" viewBox="0 0 18 14" version="1.1" xmlns="http://www.w3.org/2000/svg" xmlns:xlink="http://www.w3.org/1999/xlink">
    <!-- Generator: Sketch 42 (36781) - http://www.bohemiancoding.com/sketch -->
    <title>Icon_Promotions</title>
    <desc>Created with Sketch.</desc>
    <defs></defs>
    <g id="Page-1" stroke="none" stroke-width="1" fill="none" fill-rule="evenodd">
        <g id="Artboard-Copy" transform="translate(-197.000000, -299.000000)" fill="#FFFFFF">
            <g id="Icon_Promotions" transform="translate(197.000000, 299.000000)">
                <path d="M12.3639395,1.97212025 C11.8376615,1.44959545 11.1249761,1.15809918 10.3835163,1.16185235 C9.64184803,1.16581403 8.93229021,1.46502515 8.41143349,1.99276269 L5.425369,5.01969504 L4.46851892,4.05846627 C5.24271468,3.07701207 5.17932779,1.64955606 4.27794124,0.741914222 C3.30420189,-0.239122957 1.71807016,-0.249548431 0.737241486,0.724399425 C-0.243795693,1.69813877 -0.24504675,3.284062 0.729318125,4.26489067 L3.46100103,7.01137775 L0.777900838,9.73138413 C-0.196255528,10.7122128 -0.19521298,12.298136 0.785824199,13.2722924 C1.76706989,14.2462402 3.3525761,14.2358148 4.32673246,13.2541521 C5.22811901,12.3463017 5.2915059,10.9190542 4.51731014,9.93780853 L5.43996466,9.00139238 L8.54529659,12.1231966 C9.63642678,13.2195395 11.4087575,13.2253778 12.50656,12.1352901 L7.4037071,7.00762458 L12.3639395,1.97212025 L12.3639395,1.97212025 Z M3.16408351,3.17918172 C2.79397916,3.54636694 2.19493137,3.54428185 1.82732913,3.17480302 C1.46035242,2.80490718 1.46243751,2.20565089 1.83233336,1.83825715 C2.2020207,1.47128044 2.8014855,1.47336553 3.16867072,1.84305287 C3.53564743,2.21274021 3.53397936,2.81241352 3.16408351,3.17918172 L3.16408351,3.17918172 Z M3.21767045,12.1528049 C2.85027672,12.5227008 2.25060341,12.5254114 1.88091607,12.1580176 C1.51122874,11.7908324 1.50893513,11.1913676 1.87612035,10.8212633 C2.24330558,10.4517844 2.84297889,10.4492823 3.21266622,10.8166761 C3.58214505,11.1836528 3.58485567,11.7835346 3.21767045,12.1528049 L3.21767045,12.1528049 Z M5.42015626,7.98115542 C4.89512935,7.98115542 4.46997849,7.55579605 4.46997849,7.03097764 C4.46997849,6.50595073 4.89533786,6.08121689 5.42015626,6.08121689 C5.94476615,6.08121689 6.37033403,6.50636775 6.37033403,7.03097764 C6.37033403,7.55579605 5.94476615,7.98115542 5.42015626,7.98115542 L5.42015626,7.98115542 Z" id="Fill-1"></path>
                <polygon id="Fill-2" points="8.99655355 5.99770237 10.84082 5.99770237 10.84082 7.28858466 8.99655355 7.28858466"></polygon>
                <polygon id="Fill-3" points="12.4952133 5.99770237 14.3394798 5.99770237 14.3394798 7.28858466 12.4952133 7.28858466"></polygon>
                <polygon id="Fill-4" points="15.993873 5.99770237 17.8381395 5.99770237 17.8381395 7.28858466 15.993873 7.28858466"></polygon>
            </g>
        </g>
    </g>
</svg>

<svg xmlns="http://www.w3.org/2000/svg" width="18" height="14"><g fill="#FFF" fill-rule="evenodd"><path d="M12.36 1.97c-.52-.52-1.24-.8-1.98-.8s-1.45.3-1.97.82L5.47 5l-.96-.96c.76-.98.7-2.4-.2-3.32-1-.96-2.57-.98-3.55 0s-1 2.56 0 3.54L3.45 7 .78 9.74c-.98.98-.98 2.57 0 3.54 1 .98 2.57.97 3.55-.02.9-.9.96-2.33.2-3.3l.9-.95 3.12 3.15c1.1 1.1 2.86 1.1 3.96.02L7.4 7l4.96-5.03zm-9.2 1.2c-.37.38-.97.37-1.33 0-.37-.37-.37-.96 0-1.33.37-.37.97-.37 1.34 0 .37.37.36.97 0 1.34zm.06 8.98c-.37.37-.97.38-1.34 0-.37-.36-.37-.96 0-1.33.36-.37.96-.37 1.33 0 .4.36.4.96.05 1.33zm2.2-4.17c-.52 0-.95-.42-.95-.95 0-.52.43-.95.95-.95s.95.43.95.95c0 .53-.43.95-.95.95z"/><path d="M9 6h1.84v1.3H9M12.5 6h1.84v1.3H12.5M16 6h1.84v1.3H16"/></g></svg>
